Simply-Black-Circles/scalable/apps/step.svg

<svg xmlns="http://www.w3.org/2000/svg" width="48" height="48" viewBox="0 0 12.7 12.7"><defs><linearGradient id="a" y1="532.8" x1="402.57" y2="526.8" x2="395.57" gradientUnits="userSpaceOnUse" gradientTransform="translate(0 -2)"><stop stop-color="#90a8b0"/><stop offset="1" stop-color="#e1e7ea"/></linearGradient><linearGradient id="b" y1="508.67" x1="400.07" y2="531.17" x2="400.32" gradientUnits="userSpaceOnUse"><stop stop-color="#96acb4"/><stop offset="1" stop-color="#475b63"/></linearGradient></defs><path d="M6.34.07a6.29 6.29 0 0 0-6.29 6.3 6.29 6.29 0 0 0 6.3 6.28 6.29 6.29 0 0 0 6.28-6.29A6.29 6.29 0 0 0 6.34.07zm-.1.94v5.77a.95.95 0 0 0-.8.94.95.95 0 0 0 .95.96.95.95 0 0 0 .95-.96.95.95 0 0 0-.77-.93V1.02a5.4 5.4 0 0 1 1.53.3l1.58 5.17a.95.95 0 0 0-.46.55.95.95 0 0 0 .61 1.2.95.95 0 0 0 1.2-.61.95.95 0 0 0-.6-1.2.95.95 0 0 0-.44-.04L8.5 1.46a5.4 5.4 0 0 1 3.24 4.96 5.4 5.4 0 0 1-5.4 5.4 5.4 5.4 0 0 1-5.41-5.4 5.4 5.4 0 0 1 1.51-3.75v4.1a.95.95 0 0 0-.81.95.95.95 0 0 0 .95.96.95.95 0 0 0 .96-.96.95.95 0 0 0-.78-.93V2.37a5.4 5.4 0 0 1 1.59-.98v5.39a.95.95 0 0 0-.81.94.95.95 0 0 0 .95.96.95.95 0 0 0 .95-.96.95.95 0 0 0-.77-.93v-5.5A5.4 5.4 0 0 1 6.25 1z" fill="#1a1a1a"/></svg>

<?xml version="1.0" encoding="UTF-8" standalone="no"?>
<svg
   xmlns:dc="http://purl.org/dc/elements/1.1/"
   xmlns:cc="http://creativecommons.org/ns#"
   xmlns:rdf="http://www.w3.org/1999/02/22-rdf-syntax-ns#"
   xmlns:svg="http://www.w3.org/2000/svg"
   xmlns="http://www.w3.org/2000/svg"
   xmlns:sodipodi="http://sodipodi.sourceforge.net/DTD/sodipodi-0.dtd"
   xmlns:inkscape="http://www.inkscape.org/namespaces/inkscape"
   width="48"
   height="48"
   viewBox="0 0 12.7 12.7"
   version="1.1"
   id="svg16"
   sodipodi:docname="step.svg"
   inkscape:version="0.92.4 (5da689c313, 2019-01-14)">
  <metadata
     id="metadata20">
    <rdf:RDF>
      <cc:Work
         rdf:about="">
        <dc:format>image/svg+xml</dc:format>
        <dc:type
           rdf:resource="http://purl.org/dc/dcmitype/StillImage" />
        <dc:title></dc:title>
      </cc:Work>
    </rdf:RDF>
  </metadata>
  <sodipodi:namedview
     pagecolor="#ffffff"
     bordercolor="#666666"
     borderopacity="1"
     objecttolerance="10"
     gridtolerance="10"
     guidetolerance="10"
     inkscape:pageopacity="0"
     inkscape:pageshadow="2"
     inkscape:window-width="1087"
     inkscape:window-height="480"
     id="namedview18"
     showgrid="false"
     inkscape:zoom="4.9166667"
     inkscape:cx="2.1355932"
     inkscape:cy="24"
     inkscape:window-x="0"
     inkscape:window-y="25"
     inkscape:window-maximized="0"
     inkscape:current-layer="svg16" />
  <defs
     id="defs12">
    <linearGradient
       id="a"
       y1="532.8"
       x1="402.57"
       y2="526.8"
       x2="395.57"
       gradientUnits="userSpaceOnUse"
       gradientTransform="translate(0 -2)">
      <stop
         stop-color="#90a8b0"
         id="stop2" />
      <stop
         offset="1"
         stop-color="#e1e7ea"
         id="stop4" />
    </linearGradient>
    <linearGradient
       id="b"
       y1="508.67"
       x1="400.07"
       y2="531.17"
       x2="400.32"
       gradientUnits="userSpaceOnUse">
      <stop
         stop-color="#96acb4"
         id="stop7" />
      <stop
         offset="1"
         stop-color="#475b63"
         id="stop9" />
    </linearGradient>
  </defs>
  <path
     d="M 6.34,0.07 A 6.29,6.29 0 0 0 0.05,6.37 6.29,6.29 0 0 0 6.35,12.65 6.29,6.29 0 0 0 12.63,6.36 6.29,6.29 0 0 0 6.34,0.07 Z M 6.24,1.01 V 6.78 A 0.95,0.95 0 0 0 5.44,7.72 0.95,0.95 0 0 0 6.39,8.68 0.95,0.95 0 0 0 7.34,7.72 0.95,0.95 0 0 0 6.57,6.79 V 1.02 A 5.4,5.4 0 0 1 8.1,1.32 L 9.68,6.49 A 0.95,0.95 0 0 0 9.22,7.04 0.95,0.95 0 0 0 9.83,8.24 0.95,0.95 0 0 0 11.03,7.63 0.95,0.95 0 0 0 10.43,6.43 0.95,0.95 0 0 0 9.99,6.39 L 8.5,1.46 a 5.4,5.4 0 0 1 3.24,4.96 5.4,5.4 0 0 1 -5.4,5.4 5.4,5.4 0 0 1 -5.41,-5.4 5.4,5.4 0 0 1 1.51,-3.75 v 4.1 A 0.95,0.95 0 0 0 1.63,7.72 0.95,0.95 0 0 0 2.58,8.68 0.95,0.95 0 0 0 3.54,7.72 0.95,0.95 0 0 0 2.76,6.79 V 2.37 A 5.4,5.4 0 0 1 4.35,1.39 V 6.78 A 0.95,0.95 0 0 0 3.54,7.72 0.95,0.95 0 0 0 4.49,8.68 0.95,0.95 0 0 0 5.44,7.72 0.95,0.95 0 0 0 4.67,6.79 V 1.29 A 5.4,5.4 0 0 1 6.25,1 Z"
     id="path14"
     inkscape:connector-curvature="0"
     style="fill:#1a1a1a" />
</svg>
